X:264
T: Zhaimianhua
N: C1761
O: China, Shandong Gaomi
S: III, 334]
R: Xiaodiao]
M: 2/4
L: 1/16
K: G
G2G4GA | d2A2d4 | d2dag2ed | gBAGA4
d2ddg2BA | G2G4AE | D8
AGAag3e | gedAd2AG
AGAag3e | gedAd2AG
G2G4GA | d2A2d4 | G2G4AE | D6
f2 | e2def2ee | d8

